brandFactory_export/3.Masa/Tablet _3Masa.svg

<?xml version="1.0" encoding="UTF-8"?>
<svg width="24px" height="24px" viewBox="0 0 24 24" version="1.1" xmlns="http://www.w3.org/2000/svg" xmlns:xlink="http://www.w3.org/1999/xlink">
    <title>3.Masa/Tablet _3Masa</title>
    <g id="Symbols" stroke="none" stroke-width="1" fill="none" fill-rule="evenodd">
        <g id="3.Masa/Tablet-_3Masa" fill="#5CB615" fill-rule="nonzero">
            <path d="M5.53109244,1.89579832 C5.26890756,2.05714286 4.47563025,2.5512605 4.47563025,4.34621849 L4.47563025,17.7344538 L19.3193277,17.7344538 C19.3193277,12.6487395 19.312605,4.33277311 19.312605,4.33277311 C19.312605,4.28907563 19.3159664,4.24537815 19.3193277,4.19831933 C19.3193277,4.19831933 19.3932773,2.98151261 18.7042017,2.21512605 C18.2638655,1.72773109 17.5411765,1.4789916 16.5529412,1.4789916 L7.25210084,1.48235294 C7.21848739,1.48235294 7.18823529,1.4789916 7.15462185,1.4789916 L7.10420168,1.4789916 C6.88907563,1.47563025 6.15294118,1.50588235 5.53109244,1.89579832 Z M20.7378151,4.32941176 C20.7378151,4.32941176 20.7445378,14.5378151 20.7445378,19.2504202 C20.7445378,23.3613445 17.5344538,23.6235294 16.7142857,23.6235294 C16.5932773,23.6235294 16.5260504,23.6201681 16.5260504,23.6201681 C16.5260504,23.6201681 12.0184874,23.6235294 7.26890756,23.6235294 C2.51932773,23.6235294 3.04369748,19.2571429 3.04369748,19.2571429 L3.04369748,4.35294118 C3.04369748,0.238655462 6.3512605,0.00672073126 7.09747899,0.00672073126 C7.19159664,0.00672073126 7.24537815,0.0100840336 7.24537815,0.0100840336 C7.24537815,0.0100840336 11.9815126,0.00672073126 16.5462185,0.00672073126 C21.1142857,0.00336134454 20.7378151,4.32941176 20.7378151,4.32941176 Z M11.887395,19.687395 C11.2722689,19.687395 10.902521,20.0571429 10.902521,20.6722689 C10.902521,20.9714286 10.9865546,21.2134454 11.1579832,21.3882353 C11.3327731,21.5630252 11.5848739,21.6571429 11.887395,21.6571429 C12.189916,21.6571429 12.4420168,21.5630252 12.6168067,21.3882353 C12.7882353,21.2134454 12.8722689,20.9714286 12.8722689,20.6722689 C12.8722689,20.0571429 12.502521,19.687395 11.887395,19.687395 Z" id="Tablet-_3Masa"></path>
        </g>
    </g>
</svg>

<svg width="24" height="24" viewBox="0 0 24 24" xmlns="http://www.w3.org/2000/svg"><path d="M5.531 1.896c-.262.161-1.055.655-1.055 2.45v13.388h14.843c0-5.085-.006-13.401-.006-13.401 0-.044.003-.088.006-.135 0 0 .074-1.216-.615-1.983-.44-.487-1.163-.736-2.151-.736l-9.3.003c-.035 0-.065-.003-.098-.003h-.05c-.216-.003-.952.027-1.574.417zm15.207 2.433s.007 10.209.007 14.921c0 4.111-3.21 4.374-4.03 4.374-.122 0-.189-.004-.189-.004s-4.508.004-9.257.004c-4.75 0-4.225-4.367-4.225-4.367V4.353C3.044.239 6.35.007 7.097.007c.095 0 .148.003.148.003s4.737-.003 9.301-.003c4.568-.004 4.192 4.322 4.192 4.322zm-8.85 15.358c-.616 0-.985.37-.985.985 0 .3.084.541.255.716.175.175.427.27.73.27.302 0 .554-.095.729-.27.171-.175.255-.417.255-.716 0-.615-.37-.985-.985-.985z" fill="#5CB615" fill-rule="nonzero"/></svg>
